src/symbols/alphanum/1F18E.svg

<svg id="emoji" viewBox="0 0 72 72" xmlns="http://www.w3.org/2000/svg">
  <g id="grid">
    <path fill="#b3b3b3" d="M68,4V68H4V4H68m4-4H0V72H72V0Z"/>
    <path fill="none" stroke="#00a5ff" stroke-miterlimit="10" stroke-width="0.1" d="M12.923,10.9583H59.0769A1.9231,1.9231,0,0,1,61,12.8814V59.0352a1.9231,1.9231,0,0,1-1.9231,1.9231H12.9231A1.9231,1.9231,0,0,1,11,59.0352V12.8813A1.923,1.923,0,0,1,12.923,10.9583Z"/>
    <rect x="16" y="4" rx="2.2537" width="40" height="64" fill="none" stroke="#00a5ff" stroke-miterlimit="10" stroke-width="0.1"/>
    <rect x="16" y="4" rx="2.2537" width="40" height="64" transform="translate(72) rotate(90)" fill="none" stroke="#00a5ff" stroke-miterlimit="10" stroke-width="0.1"/>
    <circle cx="36" cy="36" r="29" fill="none" stroke="#00a5ff" stroke-miterlimit="10" stroke-width="0.1"/>
    <rect x="11" y="11.9583" rx="1.9231" width="50" height="50" fill="none" stroke="#00a5ff" stroke-miterlimit="10" stroke-width="0.1"/>
  </g>
  <g id="line-supplement">
    <g id="AB_Button">
      <path fill="none" stroke="#000" stroke-linejoin="round" stroke-width="2" d="M59.0349,60.1373h-46.07A.9679.9679,0,0,1,12,59.1722v-46.07a.9679.9679,0,0,1,.9651-.9651h46.07A.9679.9679,0,0,1,60,13.1024v46.07A.9679.9679,0,0,1,59.0349,60.1373Z"/>
      <g>
        <g>
          <polyline fill="none" stroke="#000" stroke-linecap="round" stroke-linejoin="round" stroke-width="2" points="33.287 43.637 26.858 28.637 20.43 43.637"/>
          <line x1="22.5724" x2="31.1438" y1="40.0457" y2="40.0457" fill="none" stroke="#000" stroke-linecap="round" stroke-linejoin="round" stroke-width="2"/>
        </g>
        <g>
          <path fill="none" stroke="#000" stroke-linecap="round" stroke-linejoin="round" stroke-width="2" d="M46.6551,36.1373h-5.72V28.6654h5.72a3.736,3.736,0,0,1,3.736,3.736h0A3.7359,3.7359,0,0,1,46.6551,36.1373Z"/>
          <path fill="none" stroke="#000" stroke-linecap="round" stroke-linejoin="round" stroke-width="2" d="M46.6551,43.6094h-5.72V36.1373h5.72a3.736,3.736,0,0,1,3.736,3.736h0A3.7361,3.7361,0,0,1,46.6551,43.6094Z"/>
        </g>
      </g>
    </g>
  </g>
  <g id="color">
    <g id="color-2">
      <path fill="#d22f27" d="M59.0349,60.1372h-46.07A.9679.9679,0,0,1,12,59.1721v-46.07a.9679.9679,0,0,1,.9651-.9651h46.07A.9679.9679,0,0,1,60,13.1023v46.07A.9679.9679,0,0,1,59.0349,60.1372Z"/>
    </g>
  </g>
  <g id="line"/>
  <g id="color-foreground">
    <g id="AB_Button-2">
      <path fill="none" stroke="#fff" stroke-linejoin="round" stroke-width="2" d="M59.0349,60.1372h-46.07A.9679.9679,0,0,1,12,59.1721v-46.07a.9679.9679,0,0,1,.9651-.9651h46.07A.9679.9679,0,0,1,60,13.1023v46.07A.9679.9679,0,0,1,59.0349,60.1372Z"/>
      <g>
        <g>
          <polyline fill="none" stroke="#fff" stroke-linecap="round" stroke-linejoin="round" stroke-width="2" points="33.287 43.637 26.858 28.637 20.43 43.637"/>
          <line x1="22.5724" x2="31.1438" y1="40.0456" y2="40.0456" fill="none" stroke="#fff" stroke-linecap="round" stroke-linejoin="round" stroke-width="2"/>
        </g>
        <g>
          <path fill="none" stroke="#fff" stroke-linecap="round" stroke-linejoin="round" stroke-width="2" d="M46.6551,36.1372h-5.72v-7.472h5.72a3.7361,3.7361,0,0,1,3.736,3.7361h0A3.7359,3.7359,0,0,1,46.6551,36.1372Z"/>
          <path fill="none" stroke="#fff" stroke-linecap="round" stroke-linejoin="round" stroke-width="2" d="M46.6551,43.6093h-5.72V36.1372h5.72a3.736,3.736,0,0,1,3.736,3.736h0A3.7361,3.7361,0,0,1,46.6551,43.6093Z"/>
        </g>
      </g>
    </g>
  </g>
</svg>

<svg id="emoji" version="1.1" viewBox="0 0 72 72" xmlns="http://www.w3.org/2000/svg">
 <g id="grid">
  <path d="m68 4v64h-64v-64h64m4-4h-72v72h72z" fill="#b3b3b3"/>
  <path d="m12.92 11h46.15a1.923 1.923 0 0 1 1.923 1.923v46.15a1.923 1.923 0 0 1-1.923 1.923h-46.15a1.923 1.923 0 0 1-1.923-1.923v-46.15a1.923 1.923 0 0 1 1.923-1.923z" fill="none" stroke="#00a5ff" stroke-miterlimit="10" stroke-width=".1"/>
  <rect x="16" y="4" width="40" height="64" rx="2.254" fill="none" stroke="#00a5ff" stroke-miterlimit="10" stroke-width=".1"/>
  <rect transform="rotate(90,36,36)" x="16" y="4" width="40" height="64" rx="2.254" fill="none" stroke="#00a5ff" stroke-miterlimit="10" stroke-width=".1"/>
  <circle cx="36" cy="36" r="29" fill="none" stroke="#00a5ff" stroke-miterlimit="10" stroke-width=".1"/>
 </g>
 <g id="color" transform="translate(-.005724 -.00219)">
  <rect transform="translate(.005724 .00219)" x="12" y="12" width="48" height="47.83" fill="#d22f27"/>
  <path transform="translate(1.885 -.5999)" d="m32.59 45.02-7.131-16.64-7.131 16.64" clip-rule="evenodd" fill="none" stroke="#fff" stroke-linecap="round" stroke-linejoin="round" stroke-miterlimit="10" stroke-width="4.754px"/>
  <path transform="translate(1.885 -.5999)" d="m20.7 41.02h9.508" clip-rule="evenodd" fill="none" stroke="#fff" stroke-linecap="round" stroke-linejoin="round" stroke-miterlimit="10" stroke-width="4.754px"/>
  <path transform="translate(.803 -.02381)" d="m46.91 36.2h-6.344v-8.289h6.344c2.289 0 4.146 1.857 4.146 4.146s-1.857 4.143-4.146 4.143z" clip-rule="evenodd" fill="none" stroke="#fff" stroke-linecap="round" stroke-linejoin="round" stroke-miterlimit="10" stroke-width="4.754px"/>
  <path transform="translate(.803 -.02381)" d="m46.91 44.49h-6.344v-8.289h6.344c2.289 0 4.146 1.854 4.146 4.143s-1.857 4.146-4.146 4.146z" clip-rule="evenodd" fill="none" stroke="#fff" stroke-linecap="round" stroke-linejoin="round" stroke-miterlimit="10" stroke-width="4.754px"/>
 </g>
 <g id="line">
  <rect x="12" y="12" width="48" height="48" fill="none" stroke="#000" stroke-linecap="round" stroke-linejoin="round" stroke-width="2"/>
 </g>
</svg>
